icons/shirt-fill.svg

<svg viewBox="0 0 24 24" fill="currentColor" xmlns="http://www.w3.org/2000/svg">
    <path d="M6.99805 4V11L11.998 8.5L16.998 11V4H19.998C20.5503 4 20.998 4.44772 20.998 5V21C20.998 21.5523 20.5503 22 19.998 22H3.99805C3.44576 22 2.99805 21.5523 2.99805 21V5C2.99805 4.44772 3.44576 4 3.99805 4H6.99805ZM11.998 8L7.49805 3H16.498L11.998 8ZM12.998 11.2361L11.998 10.7361L10.998 11.2361V20H12.998V11.2361ZM14.998 14V16H18.998V14H14.998Z"/>
</svg>

<svg xmlns="http://www.w3.org/2000/svg" viewBox="0 0 24 24">
    <g>
        <path fill="none" d="M0 0h24v24H0z"/>
        <path d="M7 4v7l5-2.5 5 2.5V4h3a1 1 0 0 1 1 1v16a1 1 0 0 1-1 1H4a1 1 0 0 1-1-1V5a1 1 0 0 1 1-1h3zm5 4L7.5 3h9L12 8zm1 3.236l-1-.5-1 .5V20h2v-8.764zM15 14v2h4v-2h-4z"/>
    </g>
</svg>
